X:547
T: GUTE NACHT MEINE WALLFAHRT IST VOLLBRACHT
N: F1066
O: Europa, Mitteleuropa, Deutschland
R: Trost - Lied
M: 4/4
L: 1/16
K: E
 | B12D4 | E8z4
E3E | A6c2e4d2c2 | B8z4
B3B | B6B2B4c2d2 | e3BB4z4
B3B | B6d2f2d2B2A2 | A2G2G4z8 |
e6G2E3E=d3d | c8z8 |
B12A4 | G8z8 | B12D4 | E8z8

@@@ Tune index: 5978
